components/ui-node-icon/src/addNewColumn/addNewColumn.small.svg

<svg width="16" height="16" viewBox="0 0 16 16" fill="none" xmlns="http://www.w3.org/2000/svg">
  <path fill-rule="evenodd" clip-rule="evenodd" d="M9 2H4V14H9V13.4649C7.8044 12.7733 7 11.4806 7 10C7 7.79086 8.79086 6 11 6C13.2091 6 15 7.79086 15 10C15 12.2091 13.2091 14 11 14C10.6547 14 10.3196 13.9562 10 13.874V14C10 14.5523 9.55229 15 9 15H4C3.44772 15 3 14.5523 3 14V2C3 1.44771 3.44772 1 4 1H9C9.55229 1 10 1.44772 10 2V3V4.5C10 4.77614 9.77614 5 9.5 5C9.22386 5 9 4.77614 9 4.5V3V2ZM11 13C12.6569 13 14 11.6569 14 10C14 8.34315 12.6569 7 11 7C9.34315 7 8 8.34315 8 10C8 11.6569 9.34315 13 11 13ZM11 8C11.2761 8 11.5 8.22386 11.5 8.5V9.5H12.5C12.7761 9.5 13 9.72386 13 10C13 10.2761 12.7761 10.5 12.5 10.5H11.5V11.5C11.5 11.7761 11.2761 12 11 12C10.7239 12 10.5 11.7761 10.5 11.5V10.5H9.5C9.22386 10.5 9 10.2761 9 10C9 9.72386 9.22386 9.5 9.5 9.5H10.5V8.5C10.5 8.22386 10.7239 8 11 8Z" fill="currentColor"/>
</svg>

<svg xmlns="http://www.w3.org/2000/svg" width="16" height="16" fill="none" viewBox="0 0 16 16">
  <path fill="currentColor" fill-rule="evenodd" d="M9 2H4v12h5v-.535a4 4 0 1 1 1 .41v.125a1 1 0 0 1-1 1H4a1 1 0 0 1-1-1V2a1 1 0 0 1 1-1h5a1 1 0 0 1 1 1v2.5a.5.5 0 0 1-1 0V2Zm2 11a3 3 0 1 0 0-6 3 3 0 0 0 0 6Zm0-5a.5.5 0 0 1 .5.5v1h1a.5.5 0 0 1 0 1h-1v1a.5.5 0 0 1-1 0v-1h-1a.5.5 0 0 1 0-1h1v-1A.5.5 0 0 1 11 8Z" clip-rule="evenodd"/>
</svg>
